IMB-X-Files/The-Ambassadors-Assets/660c0a31810cb523dbdd4fab_inc-500-seeklogo.com 1.svg

<svg fill="none" height="63" viewBox="0 0 73 63" width="73" xmlns="http://www.w3.org/2000/svg" xmlns:xlink="http://www.w3.org/1999/xlink"><clipPath id="a"><path d="m.350204.624023h72.0984v61.7987h-72.0984z"/></clipPath><g clip-path="url(#a)" fill="#fff"><path d="m18.0949.749756h-16.91985v6.020564h3.11165v13.17248h-3.11165v5.6604h16.91985v-5.6604h-3.1116v-13.17248h3.1116z"/><path clip-rule="evenodd" d="m25.8912 57.0196c-.243.3383-.5287.6756-.8568 1.012-3.5031 3.6434-8.4717 3.8984-11.1338 3.8984h-.0056c-1.709 0-7.0253 0-10.62665-3.7443-2.07278-2.177-2.537195-4.4611-3.035107-6.9118l-.037625-.1852 9.668132-1.0601v.1436c0 .8265.00101 1.5778.24465 2.3272l.001.003c.2679.8992.7648 1.555 1.4216 1.9875.6583.4334 1.4854.6477 2.4198.6477 1.6196 0 2.7484-.6145 3.4751-1.5273.7302-.917 1.0636-2.1469 1.0636-3.3866 0-1.4451-.3832-2.6718-1.1531-3.5356-.7677-.8615-1.9343-1.3784-3.5362-1.3784-1.2576 0-2.0584.3029-2.6103.6965-.5257.375-.8353.8382-1.1029 1.2385l-.08845.132-8.08292-1.0029 1.78071-17.7875h23.69746l-.33 3.0933.0047-.0054-.0079.0779c2.3248-2.4676 5.6075-3.934 9.9287-3.8837 5.231.0511 8.5599 2.4177 10.5983 5.6144 2.3385-3.4266 6.0721-5.5655 11.2827-5.5142 5.392.0779 8.757 2.5606 10.7735 5.8568 2.0116 3.2884 2.6787 7.3794 2.7039 10.6854 0 4.0557-.9191 8.4323-3.171 11.7982-2.2561 3.3722-5.8462 5.7237-11.1609 5.7237-4.5693 0-8.3655-1.9995-10.8057-5.6548l-.0373.0566-.0108-.0173c-2.2423 3.2439-5.7961 5.5153-10.9771 5.5153-4.2465 0-7.8593-1.7198-10.2937-4.9129zm-1.4776-21.4351-.0251.0536h.0516c-.6458 1.4076-1.1573 2.9481-1.4532 4.5802-1.9091-1.1028-4.2494-1.701-6.8279-1.701-1.7173 0-3.7927.3097-5.2176.8836l-.0104.0053c-.07.0359-.1442.0724-.2209.1102-.1677.0826-.3474.1711-.5201.2709l.4145-4.2028zm7.9281 5.1754c.1941-1.7075.5307-3.2544 1.0941-4.2597.829-1.399 2.1405-1.9423 3.1506-1.9423 1.063 0 1.8694.4438 2.4687 1.1328.6025.6925.997 1.6351 1.22 2.6259.4482 1.9911.5489 5.5282.5489 6.9697 0 2.3134-.1635 4.7782-.8024 6.6608-.3192.9405-.7541 1.7264-1.3379 2.276-.5808.5468-1.3146.8655-2.2478.8655-.9932 0-1.826-.3712-2.4863-1.0481-.6624-.6792-1.1556-1.6712-1.4533-2.9162-.3481-1.6837-.3984-3.4726-.3984-5.2205 0-1.5931.0501-3.44.2438-5.1439zm21.8811.1002c.1941-1.7075.5307-3.2543 1.094-4.2597.8291-1.399 2.1406-1.9423 3.1507-1.9423 1.063 0 1.8694.4439 2.4687 1.1328.6024.6925.997 1.6351 1.22 2.6259.4481 1.9911.5489 5.5282.5489 6.9698 0 2.3133-.1635 4.7781-.8024 6.6608-.3193.9405-.7541 1.7263-1.3379 2.276-.5808.5468-1.3146.8654-2.2479.8654-.9931 0-1.8259-.3712-2.4862-1.0481-.6624-.6792-1.1557-1.6712-1.4533-2.9162-.3481-1.6836-.3984-3.4726-.3984-5.2204 0-1.5932.0501-3.4401.2438-5.144z" fill-rule="evenodd"/><path d="m29.2867 6.5132h-10.546v5.6089h2.3589v7.8211h-2.3589v5.5575h13.3064v-5.6089h-2.5094v-4.5023c0-1.8847 1.3983-3.2674 3.2338-3.2674.7585 0 1.4031.1883 1.8558.5681.4492.3768.7256.9555.7256 1.7731v5.4799h-2.409v5.6604h13.0052v-4.7638c.6332 1.1741 1.5206 2.1403 2.5813 2.9086 2.1856 1.5829 5.1001 2.3207 8.0303 2.3207 1.8647 0 4.1094-.232 6.0369-1.2103 1.9337-.9815 3.5408-2.7109 4.1264-5.683l.1887-.7739h-7.3189v.1288c0 .9709-.3387 1.667-.8594 2.122-.5234.4574-1.2436.6822-2.0231.6822-.7339 0-1.2889-.1597-1.711-.4285-.4219-.2686-.7207-.6524-.9322-1.117-.4261-.9361-.4903-2.183-.4903-3.4199v-.0515c0-1.2629.0643-2.5094.4902-3.4389.2113-.4611.5099-.84.9316-1.1048.4221-.2649.9773-.4216 1.7117-.4216.5699 0 1.013.1272 1.3603.3417.3475.2147.6075.522.8029.895.3936.7512.5187 1.7552.5689 2.7574l.0068.1365 7.2898-.8008-.0137-.1277c-.4581-4.2529-2.997-6.24285-5.4214-7.15621-1.2094-.45563-2.3903-.64395-3.2713-.71536-.4408-.03573-.8074-.04228-1.0663-.0382-.1293.00204-.2323.00674-.3046.01187-.036.00254-.0654.00527-.0872.00798-.0106.00132-.0214.00288-.031.00478l-.0014.00029c-2.9243.00296-5.8314.74093-8.0127 2.32069-2.1904 1.58636-3.6417 4.01736-3.6417 7.37886 0 1.3585.2371 2.565.6641 3.6252h-1.7116v-6.9722c0-2.2988-.8303-3.88333-2.1785-4.88862-1.3419-1.00061-3.1801-1.41485-5.1773-1.41485-1.4418 0-2.702.19448-3.8451.67246-1.144.47833-2.1644 1.23676-3.129 2.35591l-.0095.01464c-.0499.07672-.1287.16944-.2151.26346z"/><path d="m69.0584 19.3276c-1.7095 0-3.0898 1.4199-3.0898 3.1646 0 1.7448 1.3803 3.1647 3.0898 3.1647s3.0898-1.4199 3.0898-3.1647c0-1.7447-1.3803-3.1646-3.0898-3.1646z"/></g></svg>

<svg width="73" height="63" viewBox="0 0 73 63" fill="none" xmlns="http://www.w3.org/2000/svg">
    <g clip-path="url(#clip0_2534_13327)">
        <path
            d="M18.0949 0.749756H1.17505V6.77032H4.2867V19.9428H1.17505V25.6032H18.0949V19.9428H14.9833V6.77032H18.0949V0.749756Z"
            fill="white" />
        <path fill-rule="evenodd" clip-rule="evenodd"
            d="M25.8912 57.0196C25.6482 57.3579 25.3625 57.6952 25.0344 58.0316C21.5313 61.675 16.5627 61.93 13.9006 61.93H13.895C12.186 61.93 6.8697 61.93 3.26835 58.1857C1.19557 56.0087 0.731155 53.7246 0.233243 51.2739L0.195618 51.0887L9.86375 50.0286V50.1722C9.86375 50.9987 9.86476 51.75 10.1084 52.4994L10.1094 52.5024C10.3773 53.4016 10.8742 54.0574 11.531 54.4899C12.1893 54.9233 13.0164 55.1376 13.9508 55.1376C15.5704 55.1376 16.6992 54.5231 17.4259 53.6103C18.1561 52.6933 18.4895 51.4634 18.4895 50.2237C18.4895 48.7786 18.1063 47.5519 17.3364 46.6881C16.5687 45.8266 15.4021 45.3097 13.8002 45.3097C12.5426 45.3097 11.7418 45.6126 11.1899 46.0062C10.6642 46.3812 10.3546 46.8444 10.087 47.2447L9.99855 47.3767L1.91563 46.3738L3.69634 28.5863H27.3938L27.0638 31.6796L27.0685 31.6742L27.0606 31.7521C29.3854 29.2845 32.6681 27.8181 36.9893 27.8684C42.2203 27.9195 45.5492 30.2861 47.5876 33.4828C49.9261 30.0562 53.6597 27.9173 58.8703 27.9686C64.2623 28.0465 67.6273 30.5292 69.6438 33.8254C71.6554 37.1138 72.3225 41.2048 72.3477 44.5108C72.3477 48.5665 71.4286 52.9431 69.1767 56.309C66.9206 59.6812 63.3305 62.0327 58.0158 62.0327C53.4465 62.0327 49.6503 60.0332 47.2101 56.3779L47.1728 56.4345L47.162 56.4172C44.9197 59.6611 41.3659 61.9325 36.1849 61.9325C31.9384 61.9325 28.3256 60.2127 25.8912 57.0196ZM24.4136 35.5845L24.3885 35.6381H24.4401C23.7943 37.0457 23.2828 38.5862 22.9869 40.2183C21.0778 39.1155 18.7375 38.5173 16.159 38.5173C14.4417 38.5173 12.3663 38.827 10.9414 39.4009L10.931 39.4062C10.861 39.4421 10.7868 39.4786 10.7101 39.5164C10.5424 39.599 10.3627 39.6875 10.19 39.7873L10.6045 35.5845H24.4136ZM32.3417 40.7599C32.5358 39.0524 32.8724 37.5055 33.4358 36.5002C34.2648 35.1012 35.5763 34.5579 36.5864 34.5579C37.6494 34.5579 38.4558 35.0017 39.0551 35.6907C39.6576 36.3832 40.0521 37.3258 40.2751 38.3166C40.7233 40.3077 40.824 43.8448 40.824 45.2863C40.824 47.5997 40.6605 50.0645 40.0216 51.9471C39.7024 52.8876 39.2675 53.6735 38.6837 54.2231C38.1029 54.7699 37.3691 55.0886 36.4359 55.0886C35.4427 55.0886 34.6099 54.7174 33.9496 54.0405C33.2872 53.3613 32.794 52.3693 32.4963 51.1243C32.1482 49.4406 32.0979 47.6517 32.0979 45.9038C32.0979 44.3107 32.148 42.4638 32.3417 40.7599ZM54.2228 40.8601C54.4169 39.1526 54.7535 37.6058 55.3168 36.6004C56.1459 35.2014 57.4574 34.6581 58.4675 34.6581C59.5305 34.6581 60.3369 35.102 60.9362 35.7909C61.5386 36.4834 61.9332 37.426 62.1562 38.4168C62.6043 40.4079 62.7051 43.945 62.7051 45.3866C62.7051 47.6999 62.5416 50.1647 61.9027 52.0474C61.5834 52.9879 61.1486 53.7737 60.5648 54.3234C59.984 54.8702 59.2502 55.1888 58.3169 55.1888C57.3238 55.1888 56.491 54.8176 55.8307 54.1407C55.1683 53.4615 54.675 52.4695 54.3774 51.2245C54.0293 49.5409 53.979 47.7519 53.979 46.0041C53.979 44.4109 54.0291 42.564 54.2228 40.8601Z"
            fill="white" />
        <path
            d="M29.2867 6.5132H18.7407V12.1221H21.0996V19.9432H18.7407V25.5007H32.0471V19.8918H29.5377V15.3895C29.5377 13.5048 30.936 12.1221 32.7715 12.1221C33.53 12.1221 34.1746 12.3104 34.6273 12.6902C35.0765 13.067 35.3529 13.6457 35.3529 14.4633V19.9432H32.9439V25.6036H45.9491V20.8398C46.5823 22.0139 47.4697 22.9801 48.5304 23.7484C50.716 25.3313 53.6305 26.0691 56.5607 26.0691C58.4254 26.0691 60.6701 25.8371 62.5976 24.8588C64.5313 23.8773 66.1384 22.1479 66.724 19.1758L66.9127 18.4019H59.5938V18.5307C59.5938 19.5016 59.2551 20.1977 58.7344 20.6527C58.211 21.1101 57.4908 21.3349 56.7113 21.3349C55.9774 21.3349 55.4224 21.1752 55.0003 20.9064C54.5784 20.6378 54.2796 20.254 54.0681 19.7894C53.642 18.8533 53.5778 17.6064 53.5778 16.3695V16.318C53.5778 15.0551 53.6421 13.8086 54.068 12.8791C54.2793 12.418 54.5779 12.0391 54.9996 11.7743C55.4217 11.5094 55.9769 11.3527 56.7113 11.3527C57.2812 11.3527 57.7243 11.4799 58.0716 11.6944C58.4191 11.9091 58.6791 12.2164 58.8745 12.5894C59.2681 13.3406 59.3932 14.3446 59.4434 15.3468L59.4502 15.4833L66.74 14.6825L66.7263 14.5548C66.2682 10.3019 63.7293 8.31195 61.3049 7.39859C60.0955 6.94296 58.9146 6.75464 58.0336 6.68323C57.5928 6.6475 57.2262 6.64095 56.9673 6.64503C56.838 6.64707 56.735 6.65177 56.6627 6.6569C56.6267 6.65944 56.5973 6.66217 56.5755 6.66488C56.5649 6.6662 56.5541 6.66776 56.5445 6.66966L56.5431 6.66995C53.6188 6.67291 50.7117 7.41088 48.5304 8.99064C46.34 10.577 44.8887 13.008 44.8887 16.3695C44.8887 17.728 45.1258 18.9345 45.5528 19.9947H43.8412V13.0225C43.8412 10.7237 43.0109 9.13917 41.6627 8.13388C40.3208 7.13327 38.4826 6.71903 36.4854 6.71903C35.0436 6.71903 33.7834 6.91351 32.6403 7.39149C31.4963 7.86982 30.4759 8.62825 29.5113 9.7474L29.5018 9.76204C29.4519 9.83876 29.3731 9.93148 29.2867 10.0255V6.5132Z"
            fill="white" />
        <path
            d="M69.0584 19.3276C67.3489 19.3276 65.9686 20.7475 65.9686 22.4922C65.9686 24.237 67.3489 25.6569 69.0584 25.6569C70.7679 25.6569 72.1482 24.237 72.1482 22.4922C72.1482 20.7475 70.7679 19.3276 69.0584 19.3276Z"
            fill="white" />
    </g>
    <defs>
        <clipPath id="clip0_2534_13327">
            <rect width="72.0984" height="61.7987" fill="white" transform="translate(0.350204 0.624023)" />
        </clipPath>
    </defs>
</svg>
